X: 78
P: No. LXXVIII.
M: 3/4
L: 1/4
K: Am
V: 1
E |\
EEE | EAA | ADD | D2d/e/ |\
fg/f/e/d/ | eee/d/ | ccc | c2A |\
ddd | d2e/d/ | cAA | A2 |]
V: 2 clef=bass middle=d
z |\
bgb | c'cg | c'ge | c2z |\
dfa | f2e | aAA | A2 |]

